src/static/logos/compose.svg

<?xml version="1.0" encoding="UTF-8" standalone="no"?>
<svg width="256px" height="148px" viewBox="0 0 256 148" version="1.1" xmlns="http://www.w3.org/2000/svg" xmlns:xlink="http://www.w3.org/1999/xlink" preserveAspectRatio="xMidYMid">
	<g fill="#000000">
		<path d="M202.150846,29.5362716 L202.022983,29.5362716 L152.412276,0.639313238 L103.440882,29.1526836 L53.1908614,0 L1.42108547e-14,30.9427607 L1.42108547e-14,87.2023256 L102.673706,147.042045 L151.772963,118.656537 L202.150846,147.809221 L255.725295,116.86646 L255.725295,60.6068949 L202.150846,29.5362716 L202.150846,29.5362716 Z M201.89512,87.2023256 L159.828309,62.7805599 L202.278708,37.9752063 L244.345519,62.6526973 L201.89512,87.2023256 L201.89512,87.2023256 Z M102.290118,37.5916184 L144.740517,62.1412467 L102.801569,86.5630124 L60.4790323,61.8855214 L102.290118,37.5916184 L102.290118,37.5916184 Z M194.60695,33.755739 L153.051589,57.9217793 L110.729053,33.372151 L152.412276,9.07824798 L194.60695,33.755739 L194.60695,33.755739 Z M95.5133977,32.9885631 L86.9466003,37.9752063 L52.2958228,57.5381914 L10.9961877,32.9885631 L53.318724,8.43893474 L95.5133977,32.9885631 L95.5133977,32.9885631 Z M7.41603356,39.1259701 L48.971394,64.1870491 L48.971394,108.427525 L7.41603356,83.1107209 L7.41603356,39.1259701 L7.41603356,39.1259701 Z M57.2824661,68.5343791 L98.8378266,93.2118701 L98.8378266,137.324483 L57.2824661,112.646992 L57.2824661,68.5343791 L57.2824661,68.5343791 Z M156.120293,69.0458297 L198.442829,93.9790459 L198.442829,137.708071 L156.120293,112.51913 L156.120293,69.0458297 L156.120293,69.0458297 Z"></path>
		<path d="M57.2824661,112.774855 L98.8378266,137.196621 L98.8378266,93.2118701 L57.2824661,68.5343791 L57.2824661,112.774855 Z M7.41603356,82.9828583 L48.971394,108.299662 L48.971394,64.1870491 L7.41603356,39.1259701 L7.41603356,82.9828583 Z M156.120293,112.646992 L198.442829,137.835934 L198.442829,93.9790459 L156.120293,69.0458297 L156.120293,112.646992 Z" opacity="0.5"></path>
	</g>
</svg>

<svg width="256" height="148" xmlns="http://www.w3.org/2000/svg" preserveAspectRatio="xMidYMid"><path d="M202.15 29.536h-.127L152.413.64 103.44 29.153 53.19 0 0 30.943v56.26l102.674 59.839 49.099-28.385 50.378 29.152 53.574-30.943v-56.26l-53.574-31.07zm-.255 57.666l-42.067-24.421 42.45-24.806 42.068 24.678-42.45 24.55zm-99.605-49.61l42.45 24.55-41.938 24.421-42.323-24.677 41.811-24.294zm92.317-3.836l-41.555 24.166-42.323-24.55 41.683-24.294 42.195 24.678zm-99.094-.767l-8.566 4.986-34.651 19.563-41.3-24.55L53.32 8.439l42.194 24.55zM7.416 39.126l41.555 25.061v44.24L7.416 83.112V39.126zm49.866 29.408l41.556 24.678v44.112l-41.556-24.677V68.534zm98.838.512l42.323 24.933v43.73l-42.323-25.19V69.046z"/><path d="M57.282 112.775l41.556 24.422V93.212L57.282 68.534v44.24zM7.416 82.983L48.971 108.3V64.187L7.416 39.126v43.857zm148.704 29.664l42.323 25.189V93.979L156.12 69.046v43.601z" opacity=".5"/></svg>
